svg/fluentui-system-icons/ic_fluent_receipt_32_filled.svg

<svg width="32" height="32" viewBox="0 0 32 32" fill="none" xmlns="http://www.w3.org/2000/svg">
<path d="M3 6.25C3 4.45507 4.45507 3 6.25 3H19.75C21.5449 3 23 4.45507 23 6.25V19H29V24.5C29 26.9853 26.9853 29 24.5 29H7.5C5.01472 29 3 26.9853 3 24.5V6.25ZM23 27H24.5C25.8807 27 27 25.8807 27 24.5V21H23V27ZM8 10C8 10.5523 8.44772 11 9 11H17C17.5523 11 18 10.5523 18 10C18 9.44772 17.5523 9 17 9H9C8.44772 9 8 9.44772 8 10ZM9 15C8.44772 15 8 15.4477 8 16C8 16.5523 8.44772 17 9 17H17C17.5523 17 18 16.5523 18 16C18 15.4477 17.5523 15 17 15H9ZM8 22C8 22.5523 8.44772 23 9 23H13C13.5523 23 14 22.5523 14 22C14 21.4477 13.5523 21 13 21H9C8.44772 21 8 21.4477 8 22Z" fill="#212121"/>
</svg>

<svg xmlns="http://www.w3.org/2000/svg" width="32" height="32"><path d="M3 6.25A3.25 3.25 0 0 1 6.25 3h13.5A3.25 3.25 0 0 1 23 6.25V19h6v5.5a4.5 4.5 0 0 1-4.5 4.5h-17A4.5 4.5 0 0 1 3 24.5V6.25ZM23 27h1.5a2.5 2.5 0 0 0 2.5-2.5V21h-4v6ZM8 10a1 1 0 0 0 1 1h8a1 1 0 1 0 0-2H9a1 1 0 0 0-1 1Zm1 5a1 1 0 1 0 0 2h8a1 1 0 1 0 0-2H9Zm-1 7a1 1 0 0 0 1 1h4a1 1 0 1 0 0-2H9a1 1 0 0 0-1 1Z"/></svg>
